contributed-vectors/oxygen_updater.svg

<svg xmlns="http://www.w3.org/2000/svg" width="192" height="192" fill="none"><g clip-path="url(#a)"><path fill="#FF837D" fill-rule="evenodd" d="M30 19h133c5.52 0 10 4.48 10 10v133c0 5.52-4.48 10-10 10H30c-5.52 0-10-4.48-10-10V29c0-5.52 4.48-10 10-10Z" clip-rule="evenodd"/><path fill="#fff" d="M87.7 114.4h17.6c2.42 0 4.4-1.98 4.4-4.4V88h7c3.92 0 5.9-4.75 3.12-7.52l-20.2-20.19a4.37 4.37 0 0 0-6.2 0L73.23 80.48c-2.78 2.77-.84 7.52 3.08 7.52h7v22c-.01 2.42 1.97 4.4 4.39 4.4Zm-17.6 8.8h52.79c2.42 0 4.4 1.98 4.4 4.4 0 2.42-1.98 4.4-4.4 4.4H70.1c-2.42 0-4.4-1.98-4.4-4.4 0-2.42 1.98-4.4 4.4-4.4Z"/></g><defs><clipPath id="a"><path fill="#fff" d="M0 0h192v192H0z"/></clipPath></defs></svg>

<svg width="192" height="192" viewBox="0 0 192 192" fill="none" xmlns="http://www.w3.org/2000/svg">
<g clip-path="url(#clip0)">
<path fill-rule="evenodd" clip-rule="evenodd" d="M30 19H163C168.52 19 173 23.48 173 29V162C173 167.52 168.52 172 163 172H30C24.48 172 20 167.52 20 162V29C20 23.48 24.48 19 30 19Z" fill="#FF837D"/>
<path d="M87.7 114.4H105.3C107.72 114.4 109.7 112.42 109.7 110V88H116.7C120.62 88 122.6 83.25 119.82 80.48L99.62 60.29C97.9 58.57 95.13 58.57 93.42 60.29L73.23 80.48C70.45 83.25 72.39 88 76.31 88H83.31V110C83.3 112.42 85.28 114.4 87.7 114.4ZM70.1 123.2H122.89C125.31 123.2 127.29 125.18 127.29 127.6C127.29 130.02 125.31 132 122.89 132H70.1C67.68 132 65.7 130.02 65.7 127.6C65.7 125.18 67.68 123.2 70.1 123.2Z" fill="white"/>
</g>
<defs>
<clipPath id="clip0">
<rect width="192" height="192" fill="white"/>
</clipPath>
</defs>
</svg>
